packages/bezier-icons/icons/assignee.svg

<svg width="24" height="24" viewBox="0 0 24 24" fill="none" xmlns="http://www.w3.org/2000/svg">
<path fill-rule="evenodd" clip-rule="evenodd" d="M21.7155 2.00012H14.2845C14.1275 2.00012 14.0005 2.12712 14.0005 2.28412V13.0311C14.0005 13.2751 14.2865 13.4061 14.4705 13.2461L18.0005 10.1821L21.5295 13.2461C21.7135 13.4061 22.0005 13.2751 22.0005 13.0311V2.28412C22.0005 2.12712 21.8725 2.00012 21.7155 2.00012ZM8.50021 12.6729C10.0742 12.6729 11.3492 11.3969 11.3492 9.82291C11.3492 8.24991 10.0742 6.97391 8.50021 6.97391C6.92621 6.97391 5.65021 8.24991 5.65021 9.82291C5.65021 11.3969 6.92621 12.6729 8.50021 12.6729ZM2.00021 19.5729C2.22021 16.1749 5.04621 13.4869 8.50021 13.4869C11.9542 13.4869 14.7792 16.1749 14.9992 19.5729C15.0142 19.8049 14.8192 19.9999 14.5872 19.9999H2.41321C2.18121 19.9999 1.98621 19.8049 2.00021 19.5729Z" fill="#313234"/>
</svg>

<svg xmlns="http://www.w3.org/2000/svg" width="24" height="24" fill="none" viewBox="0 0 24 24"><path fill="#313234" fill-rule="evenodd" d="M21.716 2h-7.432a.284.284 0 0 0-.284.284v10.747c0 .244.287.375.47.215L18 10.182l3.53 3.064c.183.16.47.03.47-.215V2.284A.285.285 0 0 0 21.716 2M8.5 12.673a2.85 2.85 0 1 0 0-5.698 2.85 2.85 0 0 0 0 5.698m-6.5 6.9a6.514 6.514 0 0 1 13 0 .41.41 0 0 1-.413.427H2.413A.41.41 0 0 1 2 19.573" clip-rule="evenodd"/></svg>
